**kern	**silbe	**harmony	**phrase	**leadinstrument	**rhyme	**timestamp	**harte
*ICvox	*	*M4/4	*	*	*	*	*M4/4
*VRlead	*	*	*	*	*	*	*
*Hstimme	*	*	*	*	*	*	*
*C:	*	*C:	*	*	*	*	*C:
*M4/4	*	*	*	*	*	*	*
*clefF4	*	*	*	*	*	*	*
r;	.	1r;	.	r	.	0	N.C.
=1	=1	=1	=1	=1	=1	=1	=1
*>Letter>A	*>Letter>A	*>Letter>A	*>Letter>A	*>Letter>A	*>Letter>A	*>Letter>A	*>Letter>A
*>Label>Intro	*>Label>Intro	*>Label>Intro	*>Label>Intro	*>Label>Intro	*>Label>Intro	*>Label>Intro	*>Label>Intro
1r	.	1DMm	newline	banjo piano	.	0.604	D:7
=2	=2	=2	=2	=2	=2	=2	=2
1r	.	1GMm	.	banjo piano	.	2.128	G:7
=3	=3	=3	=3	=3	=3	=3	=3
1r	.	1DMm	.	banjo piano	.	3.652	D:7
=4	=4	=4	=4	=4	=4	=4	=4
1r	.	1GMm	.	banjo piano	.	5.177	G:7
=5	=5	=5	=5	=5	=5	=5	=5
1r	.	1DMm	.	banjo piano	.	6.701	D:7
=6	=6	=6	=6	=6	=6	=6	=6
1r	.	1GMm	.	banjo piano	.	8.225	G:7
=7	=7	=7	=7	=7	=7	=7	=7
1r	.	2CM	newline	banjo piano	.	9.75	C:maj
.	.	2E-d	.	banjo piano	.	10.489	E-:dim
=8	=8	=8	=8	=8	=8	=8	=8
2.r	.	2Dmm	.	banjo piano	.	11.228	D:min7
.	.	2GMm	.	banjo piano	.	11.967	G:7
8A	hel-	.	.	.	.	.	.
8G	-lo	.	.	.	.	.	.
=9	=9	=9	=9	=9	=9	=9	=9
*>Letter>B	*>Letter>B	*>Letter>B	*>Letter>B	*>Letter>B	*>Letter>B	*>Letter>B	*>Letter>B
*>Label>Verse	*>Label>Verse	*>Label>Verse	*>Label>Verse	*>Label>Verse	*>Label>Verse	*>Label>Verse	*>Label>Verse
8G	_	1CMM	newline	voice	.	12.707	C:maj7
8r	.	.	.	.	.	.	.
4r	.	.	.	.	.	.	.
2r	.	.	.	.	.	.	.
=10	=10	=10	=10	=10	=10	=10	=10
8E	dol-	1CMM	.	voice	A	14.266	C:maj7
4C	-ly	.	.	.	.	.	.
8r	.	.	.	.	.	.	.
4E	this	.	.	.	.	.	.
4G	is	.	.	.	.	.	.
=11	=11	=11	=11	=11	=11	=11	=11
16A	lou-	1Am	.	voice	.	15.826	A:min
16A	-is	.	.	.	.	.	.
8r	.	.	.	.	.	.	.
4r	.	.	.	.	.	.	.
2r	.	.	.	.	.	.	.
=12	=12	=12	=12	=12	=12	=12	=12
8E	dol-	1Am	.	voice	A	17.385	A:min
4C	-ly	.	.	.	.	.	.
8r	.	.	.	.	.	.	.
4E	it's	.	.	.	.	.	.
4G	so	.	.	.	.	.	.
=13	=13	=13	=13	=13	=13	=13	=13
4.c	nice	1CMM	newline	voice	.	18.945	C:maj7
8c	to	.	.	.	.	.	.
8c	have	.	.	.	.	.	.
8c	you	.	.	.	.	.	.
8r	.	.	.	.	.	.	.
8c	back	.	.	.	.	.	.
=14	=14	=14	=14	=14	=14	=14	=14
8r	.	1F#d	.	voice	.	20.475	F#:dim
8B	where	.	.	.	.	.	.
8r	.	.	.	.	.	.	.
4.d	you	.	.	.	.	.	.
8c	be-	.	.	.	.	.	.
8G	-long	.	.	.	A	.	.
=15	=15	=15	=15	=15	=15	=15	=15
1r	.	1Dmm	.	voice	.	22.005	D:min7
=16	=16	=16	=16	=16	=16	=16	=16
4r	.	1AMm	.	voice	.	23.535	A:7(b9)
4A	You're	.	.	.	.	.	.
4A	look	.	.	.	.	.	.
4A	in	.	.	.	.	.	.
=17	=17	=17	=17	=17	=17	=17	=17
4A	swell	1Dm	newline	voice	B	25.065	D:min
4r	.	.	.	.	.	.	.
4r	.	.	.	.	.	.	.
8F	dol-	.	.	.	A	.	.
8D	-ly	.	.	.	.	.	.
=18	=18	=18	=18	=18	=18	=18	=18
2r	.	1AMm	.	voice	.	26.608	A:7
4F	I	.	.	.	.	.	.
4A	can	.	.	.	.	.	.
=19	=19	=19	=19	=19	=19	=19	=19
4B-	tell	1Dm	.	voice	B	28.152	D:min(b13)
4r	.	.	.	.	.	.	.
4r	.	.	.	.	.	.	.
8F	dol-	.	.	.	A	.	.
8D	-ly	.	.	.	.	.	.
=20	=20	=20	=20	=20	=20	=20	=20
2r	.	1Dm	.	voice	.	29.695	D:min
6r	.	.	.	.	.	.	.
6D	you're	.	.	.	.	.	.
6A	still	.	.	.	.	.	.
=21	=21	=21	=21	=21	=21	=21	=21
8e	glow-	1Dmm	newline	voice	(C	31.239	D:min7
8d	-in	.	.	.	c)	.	.
4r	.	.	.	.	.	.	.
4e	you're	.	.	.	.	.	.
4e	still	.	.	.	.	.	.
=22	=22	=22	=22	=22	=22	=22	=22
8e	crow-	1GMm	.	voice	(C	32.79	G:7
8d	-in	.	.	.	c)	.	.
4r	.	.	.	.	.	.	.
4B	you	.	.	.	.	.	.
4G	still	.	.	.	.	.	.
=23	=23	=23	=23	=23	=23	=23	=23
4.A	goin	2CM	.	voice	C	34.341	C:maj
8A	strong	.	.	.	A	.	.
2r	.	2E-d	.	voice	.	35.117	E-:dim
=24	=24	=24	=24	=24	=24	=24	=24
4r	.	2Dmm	.	voice	.	35.892	D:min7
4A	I	.	.	.	.	.	.
4A	feel	2GMm	.	voice	.	36.668	G:7
4E	the	.	.	.	.	.	.
=25	=25	=25	=25	=25	=25	=25	=25
*>Letter>B2	*>Letter>B2	*>Letter>B2	*>Letter>B2	*>Letter>B2	*>Letter>B2	*>Letter>B2	*>Letter>B2
*>Label>Chorus	*>Label>Chorus	*>Label>Chorus	*>Label>Chorus	*>Label>Chorus	*>Label>Chorus	*>Label>Chorus	*>Label>Chorus
4G	room	1CMM	newline	voice	.	37.443	C:maj7
4r	.	.	.	.	.	.	.
4r	.	.	.	.	.	.	.
8E	sway-	.	.	.	(D	.	.
8C	-in	.	.	.	d)	.	.
=26	=26	=26	=26	=26	=26	=26	=26
2r	.	1CMM	.	voice	.	38.979	C:maj7
4E	while	.	.	.	.	.	.
8G	the	.	.	.	.	.	.
8A	band's	.	.	.	.	.	.
=27	=27	=27	=27	=27	=27	=27	=27
2.r	.	1Am	.	voice	.	40.515	A:min
8E	play-	.	.	.	(D	.	.
8C	-in	.	.	.	d)	.	.
=28	=28	=28	=28	=28	=28	=28	=28
2r	.	1Am	.	voice	.	42.051	A:min
8E	one	.	.	.	.	.	.
8F	of	.	.	.	.	.	.
4G	our	.	.	.	.	.	.
=29	=29	=29	=29	=29	=29	=29	=29
4d	old	1Gmm	newline	voice	.	43.587	G:min7
6r	.	.	.	.	.	.	.
6d	fav-	.	.	.	.	.	.
6d	-rite	.	.	.	.	.	.
4d	songs	.	.	.	A	.	.
=30	=30	=30	=30	=30	=30	=30	=30
4.r	.	1CMm	.	voice	.	45.101	C:7
8c	from	.	.	.	.	.	.
4d	way	.	.	.	.	.	.
4c	back	.	.	.	.	.	.
=31	=31	=31	=31	=31	=31	=31	=31
4A	when	1FMM	.	voice	E	46.615	F:maj7
4r	.	.	.	.	.	.	.
4r	.	.	.	.	.	.	.
8r	.	.	.	.	.	.	.
8B	so	.	.	.	.	.	.
=32	=32	=32	=32	=32	=32	=32	=32
1r	.	1EMm	.	voice	.	48.128	E:7
=33	=33	=33	=33	=33	=33	=33	=33
4r	.	1Am	newline	voice	.	49.642	A:min
2c	take	.	.	.	.	.	.
4A	her	.	.	.	.	.	.
=34	=34	=34	=34	=34	=34	=34	=34
4G	wrap	1Emm	.	voice	F	51.204	E:min7
4r	.	.	.	.	.	.	.
8E	fel-	.	.	.	.	.	.
8G	-las	.	.	.	.	.	.
4r	.	.	.	.	.	.	.
=35	=35	=35	=35	=35	=35	=35	=35
8c	find	1Am	.	voice	.	52.766	A:min
8c	her	.	.	.	.	.	.
8r	.	.	.	.	.	.	.
8A	an	.	.	.	.	.	.
4c	emp-	.	.	.	.	.	.
4B	-ty	.	.	.	.	.	.
=36	=36	=36	=36	=36	=36	=36	=36
4G	lap	1Emm	.	voice	F	54.328	E:min7
4r	.	.	.	.	.	.	.
8E	fel-	.	.	.	.	.	.
8G	-las	.	.	.	.	.	.
4r	.	.	.	.	.	.	.
=37	=37	=37	=37	=37	=37	=37	=37
8e	dol-	1DMm	newline	voice	A	55.89	D:7
8e	-ly	.	.	.	.	.	.
4r	.	.	.	.	.	.	.
4r	.	.	.	.	.	.	.
8c	nev-	.	.	.	.	.	.
8c	-er	.	.	.	.	.	.
=38	=38	=38	=38	=38	=38	=38	=38
4e	go	1GMm	.	voice	.	57.446	G:7
4c	aw-	.	.	.	.	.	.
4e	-ay	.	.	.	.	.	.
4e	a-	.	.	.	.	.	.
=39	=39	=39	=39	=39	=39	=39	=39
4c	-gain	2CM	.	voice	E	59.002	C:maj
4r	.	.	.	.	.	.	.
2r	.	2E-d	.	voice	.	59.78	E-:dim
=40	=40	=40	=40	=40	=40	=40	=40
1r	.	2Dmm	.	voice	.	60.558	D:min7
.	.	2GMm	.	voice	.	61.336	G:7
=41	=41	=41	=41	=41	=41	=41	=41
*>Letter>B	*>Letter>B	*>Letter>B	*>Letter>B	*>Letter>B	*>Letter>B	*>Letter>B	*>Letter>B
*>Label>Interlude	*>Label>Interlude	*>Label>Interlude	*>Label>Interlude	*>Label>Interlude	*>Label>Interlude	*>Label>Interlude	*>Label>Interlude
1r	.	1CMM	newline	trombone trumpet clarinet	.	62.114	C:maj7
=42	=42	=42	=42	=42	=42	=42	=42
1r	.	1CMM	.	trombone trumpet clarinet	.	63.68	C:maj7
=43	=43	=43	=43	=43	=43	=43	=43
1r	.	1Am	.	trombone trumpet clarinet	.	65.247	A:min
=44	=44	=44	=44	=44	=44	=44	=44
1r	.	1Am	.	trombone trumpet clarinet	.	66.813	A:min
=45	=45	=45	=45	=45	=45	=45	=45
1r	.	1CMM	newline	trombone trumpet clarinet	.	68.379	C:maj7
=46	=46	=46	=46	=46	=46	=46	=46
1r	.	1F#d	.	trombone trumpet clarinet	.	69.923	F#:dim
=47	=47	=47	=47	=47	=47	=47	=47
1r	.	1Dmm	.	trombone trumpet clarinet	.	71.468	D:min7
=48	=48	=48	=48	=48	=48	=48	=48
1r	.	1AMm	.	trombone trumpet clarinet	.	73.012	A:7(b9)
=49	=49	=49	=49	=49	=49	=49	=49
1r	.	1Dm	newline	trombone trumpet clarinet	.	74.557	D:min
=50	=50	=50	=50	=50	=50	=50	=50
1r	.	1AMm	.	trombone trumpet clarinet	.	76.143	A:7
=51	=51	=51	=51	=51	=51	=51	=51
1r	.	1Dm	.	trombone trumpet clarinet	.	77.729	D:min(b13)
=52	=52	=52	=52	=52	=52	=52	=52
1r	.	1Dm	.	trombone trumpet clarinet	.	79.315	D:min
=53	=53	=53	=53	=53	=53	=53	=53
1r	.	1Dmm	newline	trombone trumpet clarinet	.	80.902	D:min7
=54	=54	=54	=54	=54	=54	=54	=54
1r	.	1GMm	.	trombone trumpet clarinet	.	82.45	G:7
=55	=55	=55	=55	=55	=55	=55	=55
1r	.	2CM	.	trombone trumpet clarinet	.	83.998	C:maj
.	.	2E-d	.	trombone trumpet clarinet	.	84.772	E-:dim
=56	=56	=56	=56	=56	=56	=56	=56
1r	.	2Dmm	.	trombone trumpet clarinet	.	85.546	D:min7
.	.	2GMm	.	trombone trumpet clarinet	.	86.321	G:7
=57	=57	=57	=57	=57	=57	=57	=57
*>Letter>B2	*>Letter>B2	*>Letter>B2	*>Letter>B2	*>Letter>B2	*>Letter>B2	*>Letter>B2	*>Letter>B2
*>Label>Interlude	*>Label>Interlude	*>Label>Interlude	*>Label>Interlude	*>Label>Interlude	*>Label>Interlude	*>Label>Interlude	*>Label>Interlude
1r	.	1CMM	newline	trombone trumpet clarinet	.	87.095	C:maj7
=58	=58	=58	=58	=58	=58	=58	=58
1r	.	1CMM	.	trombone trumpet clarinet	.	88.642	C:maj7
=59	=59	=59	=59	=59	=59	=59	=59
1r	.	1Am	.	trombone trumpet clarinet	.	90.188	A:min
=60	=60	=60	=60	=60	=60	=60	=60
1r	.	1Am	.	trombone trumpet clarinet	.	91.735	A:min
=61	=61	=61	=61	=61	=61	=61	=61
1r	.	1Gmm	newline	trombone trumpet clarinet	.	93.282	G:min7
=62	=62	=62	=62	=62	=62	=62	=62
1r	.	1CMm	.	trombone trumpet clarinet	.	94.79	C:7
=63	=63	=63	=63	=63	=63	=63	=63
1r	.	1FMM	.	trombone trumpet clarinet	.	96.297	F:maj7
=64	=64	=64	=64	=64	=64	=64	=64
1r	.	1EMm	.	trombone trumpet clarinet	.	97.805	E:7
=65	=65	=65	=65	=65	=65	=65	=65
1r	.	1Am	newline	trumpet clarinet	.	99.313	A:min
=66	=66	=66	=66	=66	=66	=66	=66
1r	.	1Emm	.	trumpet clarinet	.	100.852	E:min7
=67	=67	=67	=67	=67	=67	=67	=67
1r	.	1Am	.	trumpet clarinet	.	102.391	A:min
=68	=68	=68	=68	=68	=68	=68	=68
1r	.	1Emm	.	trumpet clarinet	.	103.931	E:min7
=69	=69	=69	=69	=69	=69	=69	=69
1r	.	1DMm	newline	trombone	.	105.47	D:7
=70	=70	=70	=70	=70	=70	=70	=70
1r	.	1GMm	.	trombone	.	107.05	G:7
=71	=71	=71	=71	=71	=71	=71	=71
1r	.	2CM	.	trombone	.	108.63	C:maj
.	.	2E-d	.	trombone	.	109.42	E-:dim
=72	=72	=72	=72	=72	=72	=72	=72
4r	.	2Dmm	.	trombone	.	110.21	D:min7
4A	I	.	.	.	.	.	.
4c	feel	2GMm	.	trombone	.	111	G:7
4B	the	.	.	.	.	.	.
=73	=73	=73	=73	=73	=73	=73	=73
*>Letter>B2	*>Letter>B2	*>Letter>B2	*>Letter>B2	*>Letter>B2	*>Letter>B2	*>Letter>B2	*>Letter>B2
*>Label>Chorus	*>Label>Chorus	*>Label>Chorus	*>Label>Chorus	*>Label>Chorus	*>Label>Chorus	*>Label>Chorus	*>Label>Chorus
4c	room	1CMM	newline	voice	.	111.789	C:maj7
4r	.	.	.	.	.	.	.
2r	.	.	.	.	.	.	.
=74	=74	=74	=74	=74	=74	=74	=74
8c	sway-	1CMM	.	voice	(D	113.36	C:maj7
8c	-in	.	.	.	d)	.	.
4r	.	.	.	.	.	.	.
4c	while	.	.	.	.	.	.
4B	the	.	.	.	.	.	.
=75	=75	=75	=75	=75	=75	=75	=75
4A	band's	1Am	.	voice	.	114.931	A:min
4r	.	.	.	.	.	.	.
4r	.	.	.	.	.	.	.
8A	play-	.	.	.	(D	.	.
8A	-in	.	.	.	d)	.	.
=76	=76	=76	=76	=76	=76	=76	=76
2r	.	1Am	.	voice	.	116.502	A:min
8E	one	.	.	.	.	.	.
8F	of	.	.	.	.	.	.
4G	our	.	.	.	.	.	.
=77	=77	=77	=77	=77	=77	=77	=77
4d	old	1Gmm	newline	voice	.	118.073	G:min7
6r	.	.	.	.	.	.	.
6d	fav-	.	.	.	.	.	.
6d	-rite	.	.	.	.	.	.
4d	songs	.	.	.	A	.	.
=78	=78	=78	=78	=78	=78	=78	=78
4.r	.	1CMm	.	voice	.	119.605	C:7
8c	from	.	.	.	.	.	.
4d	way	.	.	.	.	.	.
4c	back	.	.	.	.	.	.
=79	=79	=79	=79	=79	=79	=79	=79
4A	when	1FMM	.	voice	E	121.137	F:maj7
4r	.	.	.	.	.	.	.
4r	.	.	.	.	.	.	.
4e	so	.	.	.	.	.	.
=80	=80	=80	=80	=80	=80	=80	=80
1r	.	1EMm	.	voice	.	122.669	E:7
=81	=81	=81	=81	=81	=81	=81	=81
4r	.	1Am	newline	voice	.	124.201	A:min
2c	gol-	.	.	.	.	.	.
4A	-ly	.	.	.	.	.	.
=82	=82	=82	=82	=82	=82	=82	=82
4.G	gee	1Emm	.	voice	G	125.737	E:min7
16E	fel-	.	.	.	.	.	.
16E	-las	.	.	.	.	.	.
2r	.	.	.	.	.	.	.
=83	=83	=83	=83	=83	=83	=83	=83
8c	have	1Am	.	voice	.	127.274	A:min
8A	a	.	.	.	.	.	.
8c	lit	.	.	.	.	.	.
8A	tle	.	.	.	.	.	.
4c	faith	.	.	.	.	.	.
4A	in	.	.	.	.	.	.
=84	=84	=84	=84	=84	=84	=84	=84
4.G	me	1Emm	.	voice	G	128.811	E:min7
16E	fel-	.	.	.	.	.	.
16E	-las	.	.	.	.	.	.
2r	.	.	.	.	.	.	.
=85	=85	=85	=85	=85	=85	=85	=85
*>Letter>A	*>Letter>A	*>Letter>A	*>Letter>A	*>Letter>A	*>Letter>A	*>Letter>A	*>Letter>A
*>Label>Outro	*>Label>Outro	*>Label>Outro	*>Label>Outro	*>Label>Outro	*>Label>Outro	*>Label>Outro	*>Label>Outro
8e	dol-	1DMm	newline	.	A	130.347	D:7
8e	-ly	.	.	.	.	.	.
4r	.	.	.	.	.	.	.
4r	.	.	.	.	.	.	.
8c	nev-	.	.	.	.	.	.
8c	-er	.	.	.	.	.	.
=86	=86	=86	=86	=86	=86	=86	=86
8e	go	1GMm	.	.	.	131.873	G:7
4c	a-	.	.	.	.	.	.
8e	-way	.	.	.	D	.	.
2r	.	.	.	.	.	.	.
=87	=87	=87	=87	=87	=87	=87	=87
8e	prom-	1DMm	.	.	.	133.4	D:7
8e	-ise	.	.	.	.	.	.
4r	.	.	.	.	.	.	.
4r	.	.	.	.	.	.	.
8c	that	.	.	.	.	.	.
8c	you'll	.	.	.	.	.	.
=88	=88	=88	=88	=88	=88	=88	=88
8e	nev-	1GMm	.	.	.	134.926	G:7
8c	-er	.	.	.	.	.	.
8e	go	.	.	.	.	.	.
8c	a-	.	.	.	.	.	.
4e	-way	.	.	.	D	.	.
4r	.	.	.	.	.	.	.
=89	=89	=89	=89	=89	=89	=89	=89
8e	dol-	1DMm	.	.	A	136.452	D:7
8e	-ly	.	.	.	.	.	.
4r	.	.	.	.	.	.	.
4r	.	.	.	.	.	.	.
8c	nev-	.	.	.	.	.	.
8c	-er	.	.	.	.	.	.
=90	=90	=90	=90	=90	=90	=90	=90
8e	go	1GMm	.	.	.	137.978	G:7
4c	a-	.	.	.	.	.	.
8e	-way	.	.	.	D	.	.
4r	.	.	.	.	.	.	.
8d	a-	.	.	.	.	.	.
8c	-gain	.	.	.	E	.	.
=91	=91	=91	=91	=91	=91	=91	=91
1r	.	4CM	newline	voice	.	139.504	C:maj
.	.	4CM	.	voice	.	139.886	C:maj/3
.	.	4FM	.	voice	.	140.267	F:maj
.	.	4F#d	.	voice	.	140.648	F#:dim
=92	=92	=92	=92	=92	=92	=92	=92
1r	.	4GM	.	voice	.	141.03	G:sus4(b7)
.	.	4GMm	.	voice	.	141.411	G:7/b5
.	.	2CM	.	voice	.	141.793	C:maj
r;	.	1r;	.	r	.	143.7	N.C.
r;	.	1r;	.	r	.	147.775	N.C.
*-	*-	*-	*-	*-	*-	*-	*-
!!!BillboardChartDate: 1964/03/28
!!!BillboardPeak: 1
!!!BillboardWeeksOnChart: 22
!!!COC: Louis Armstrong
!!!ENC: Nathaniel Condit-Schultz
!!!EST: Awating manual error checking and editing.
!!!OTL: Hello, Dolly!
!!!RDF**chordsym: original McGill chord annotation + (implied pitch class set, with bass pitch in first position)
!!!RDF**harmony: **recip + pitch class of root + harmonic quality
!!!RDF**leadinstrument: original McGill primary instrumentation annotation
!!!RDF**phrase: newline = linebreak in original McGill transcription
!!!RDF**timestamp: McGill audio timestamp in seconds
!!!RDT: 2017/01/12/
!!!SampleActualRank: 8
!!!SampleID#: 0650
!!!SampleTargetRank: 8
